X: 660
T: Rockingham Castle
P: Longways for as many as will
%R: jig
B: "The Dancing-Master: Containing Directions and Tunes for Dancing" printed by W. Pearson for John Walsh, London ca. 1709
S: 7: DMDfD http://digital.nls.uk/special-collections-of-printed-music/pageturner.cfm?id=89751228 p.181 "R"
Z: 2013 John Chambers <jc:trillian.mit.edu>
N: Repeat added to satisfy the "Each Strain twice" instruction.
M: 6/4
L: 1/8
K: Dm
% - - - - - - - - - - - - - - - - - - - - - - - - -
A/B/c |\
(dA3)d2 (^dA3)f2 | (ge3)f2 (e^c3)e2 |\
(d=B3)d2 (^cA3)f2 | e6- e4 :|
e/f/g |\
a6 g6 | f3gf2 (e^c3)e2 |\
(d=B3)d2 ^c4d2 | e2^c3=B A3e fg |\
(ae3)f2 e4d2 | d6- d4 :|
% - - - - - - - - - - - - - - - - - - - - - - - - -
%%begintext align
%% The 1. cu. go the Figure through the 2. cu. till they come into their own places :| The 1. man set to the
%% 2. wo. and fall into their own places, and the 1. wo. turn the 2. man .| The 1. wo. set to the 2. man,
%% then the 1. man turn the 2. wo. and the 1. cu. cast off into the 2. cu. place :|
%% [DMDfD]
%%endtext
%%sep 1 1 300
%%text Note: Each Strain is to be played twice over.
%%sep 1 8 500

%%sep 1 1 500
%%sep 1 1 500
